src/images/window-error.svg

<svg width="120" height="96" viewBox="0 0 120 96" fill="none" xmlns="http://www.w3.org/2000/svg">
<path fill-rule="evenodd" clip-rule="evenodd" d="M59.9373 10.8H60.0623C66.7387 10.8 71.8302 10.8 75.8754 11.1667C79.9498 11.536 83.0806 12.2847 85.7998 13.8547C89.2658 15.8558 92.1441 18.734 94.1452 22.2C95.7151 24.9193 96.4639 28.05 96.8332 32.1244C97.1998 36.1697 97.1998 41.2612 97.1998 47.9376V48.0625C97.1998 54.7389 97.1998 59.8304 96.8332 63.8757C96.4639 67.9501 95.7151 71.0808 94.1452 73.8C92.1441 77.2661 89.2658 80.1443 85.7998 82.1454C83.0806 83.7154 79.9498 84.4641 75.8754 84.8334C71.8302 85.2001 66.7387 85.2001 60.0623 85.2H59.9373C53.2609 85.2001 48.1695 85.2001 44.1242 84.8334C40.0498 84.4641 36.919 83.7154 34.1998 82.1454C30.7338 80.1443 27.8555 77.2661 25.8544 73.8C24.2845 71.0808 23.5357 67.9501 23.1664 63.8757C22.7998 59.8304 22.7998 54.739 22.7998 48.0626V47.9375C22.7998 41.2611 22.7998 36.1697 23.1664 32.1244C23.5357 28.05 24.2845 24.9193 25.8544 22.2C27.8555 18.734 30.7338 15.8558 34.1998 13.8547C36.919 12.2847 40.0498 11.536 44.1242 11.1667C48.1694 10.8 53.2609 10.8 59.9373 10.8ZM44.3408 13.5569C40.4329 13.9111 37.6929 14.6092 35.3998 15.9331C32.2986 17.7236 29.7234 20.2989 27.9329 23.4C26.609 25.6931 25.9108 28.4331 25.5566 32.341C25.201 36.2655 25.1998 41.2487 25.1998 48C25.1998 54.7514 25.201 59.7346 25.5566 63.659C25.9108 67.567 26.609 70.307 27.9329 72.6C29.7234 75.7012 32.2986 78.2765 35.3998 80.067C37.6929 81.3909 40.4329 82.089 44.3408 82.4432C48.2652 82.7989 53.2485 82.8 59.9998 82.8C66.7511 82.8 71.7344 82.7989 75.6588 82.4432C79.5667 82.089 82.3067 81.3909 84.5998 80.067C87.701 78.2765 90.2763 75.7012 92.0667 72.6C93.3906 70.307 94.0888 67.567 94.443 63.659C94.7987 59.7346 94.7998 54.7514 94.7998 48C94.7998 41.2487 94.7987 36.2655 94.443 32.341C94.0888 28.4331 93.3906 25.6931 92.0667 23.4C90.2763 20.2989 87.701 17.7236 84.5998 15.9331C82.3067 14.6092 79.5667 13.9111 75.6588 13.5569C71.7344 13.2012 66.7511 13.2 59.9998 13.2C53.2485 13.2 48.2652 13.2012 44.3408 13.5569Z" fill="#FF272C"/>
<g filter="url(#filter0_b)">
<path d="M32.3999 63.0001C32.3999 67.2919 32.3999 69.4379 33.2019 71.0914C33.9861 72.7082 35.2918 74.0139 36.9086 74.7981C38.5621 75.6001 40.7081 75.6001 44.9999 75.6001C49.2917 75.6001 51.4377 75.6001 53.0912 74.7981C54.708 74.0139 56.0137 72.7082 56.7979 71.0914C57.5999 69.4379 57.5999 67.2919 57.5999 63.0001C57.5999 58.7083 57.5999 56.5623 56.7979 54.9088C56.0137 53.292 54.708 51.9863 53.0912 51.2021C51.4377 50.4001 49.2917 50.4001 44.9999 50.4001C40.7081 50.4001 38.5621 50.4001 36.9086 51.2021C35.2918 51.9863 33.9861 53.292 33.2019 54.9088C32.3999 56.5623 32.3999 58.7083 32.3999 63.0001Z" fill="#040B1D" fill-opacity="0.1"/>
</g>
<g filter="url(#filter1_b)">
<path d="M62.3999 63.0001C62.3999 67.2919 62.3999 69.4379 63.2019 71.0914C63.9861 72.7082 65.2918 74.0139 66.9086 74.7981C68.5621 75.6001 70.7081 75.6001 74.9999 75.6001C79.2917 75.6001 81.4377 75.6001 83.0912 74.7981C84.708 74.0139 86.0137 72.7082 86.7979 71.0914C87.5999 69.4379 87.5999 67.2919 87.5999 63.0001C87.5999 58.7083 87.5999 56.5623 86.7979 54.9088C86.0137 53.292 84.708 51.9863 83.0912 51.2021C81.4377 50.4001 79.2917 50.4001 74.9999 50.4001C70.7081 50.4001 68.5621 50.4001 66.9086 51.2021C65.2918 51.9863 63.9861 53.292 63.2019 54.9088C62.3999 56.5623 62.3999 58.7083 62.3999 63.0001Z" fill="#040B1D" fill-opacity="0.1"/>
</g>
<g filter="url(#filter2_b)">
<path d="M32.3999 33.0001C32.3999 37.2919 32.3999 39.4379 33.2019 41.0914C33.9861 42.7082 35.2918 44.0139 36.9086 44.7981C38.5621 45.6001 40.7081 45.6001 44.9999 45.6001C49.2917 45.6001 51.4377 45.6001 53.0912 44.7981C54.708 44.0139 56.0137 42.7082 56.7979 41.0914C57.5999 39.4379 57.5999 37.2919 57.5999 33.0001C57.5999 28.7083 57.5999 26.5623 56.7979 24.9088C56.0137 23.292 54.708 21.9863 53.0912 21.2021C51.4377 20.4001 49.2917 20.4001 44.9999 20.4001C40.7081 20.4001 38.5621 20.4001 36.9086 21.2021C35.2918 21.9863 33.9861 23.292 33.2019 24.9088C32.3999 26.5623 32.3999 28.7083 32.3999 33.0001Z" fill="#040B1D" fill-opacity="0.1"/>
</g>
<g filter="url(#filter3_b)">
<path d="M62.3999 33.0001C62.3999 37.2919 62.3999 39.4379 63.2019 41.0914C63.9861 42.7082 65.2918 44.0139 66.9086 44.7981C68.5621 45.6001 70.7081 45.6001 74.9999 45.6001C79.2917 45.6001 81.4377 45.6001 83.0912 44.7981C84.708 44.0139 86.0137 42.7082 86.7979 41.0914C87.5999 39.4379 87.5999 37.2919 87.5999 33.0001C87.5999 28.7083 87.5999 26.5623 86.7979 24.9088C86.0137 23.292 84.708 21.9863 83.0912 21.2021C81.4377 20.4001 79.2917 20.4001 74.9999 20.4001C70.7081 20.4001 68.5621 20.4001 66.9086 21.2021C65.2918 21.9863 63.9861 23.292 63.2019 24.9088C62.3999 26.5623 62.3999 28.7083 62.3999 33.0001Z" fill="#040B1D" fill-opacity="0.1"/>
</g>
<defs>
<filter id="filter0_b" x="8.3999" y="26.4001" width="73.2" height="73.2" filterUnits="userSpaceOnUse" color-interpolation-filters="sRGB">
<feFlood flood-opacity="0" result="BackgroundImageFix"/>
<feGaussianBlur in="BackgroundImage" stdDeviation="12"/>
<feComposite in2="SourceAlpha" operator="in" result="effect1_backgroundBlur"/>
<feBlend mode="normal" in="SourceGraphic" in2="effect1_backgroundBlur" result="shape"/>
</filter>
<filter id="filter1_b" x="38.3999" y="26.4001" width="73.2" height="73.2" filterUnits="userSpaceOnUse" color-interpolation-filters="sRGB">
<feFlood flood-opacity="0" result="BackgroundImageFix"/>
<feGaussianBlur in="BackgroundImage" stdDeviation="12"/>
<feComposite in2="SourceAlpha" operator="in" result="effect1_backgroundBlur"/>
<feBlend mode="normal" in="SourceGraphic" in2="effect1_backgroundBlur" result="shape"/>
</filter>
<filter id="filter2_b" x="8.3999" y="-3.59985" width="73.2" height="73.2" filterUnits="userSpaceOnUse" color-interpolation-filters="sRGB">
<feFlood flood-opacity="0" result="BackgroundImageFix"/>
<feGaussianBlur in="BackgroundImage" stdDeviation="12"/>
<feComposite in2="SourceAlpha" operator="in" result="effect1_backgroundBlur"/>
<feBlend mode="normal" in="SourceGraphic" in2="effect1_backgroundBlur" result="shape"/>
</filter>
<filter id="filter3_b" x="38.3999" y="-3.59985" width="73.2" height="73.2" filterUnits="userSpaceOnUse" color-interpolation-filters="sRGB">
<feFlood flood-opacity="0" result="BackgroundImageFix"/>
<feGaussianBlur in="BackgroundImage" stdDeviation="12"/>
<feComposite in2="SourceAlpha" operator="in" result="effect1_backgroundBlur"/>
<feBlend mode="normal" in="SourceGraphic" in2="effect1_backgroundBlur" result="shape"/>
</filter>
</defs>
</svg>

<svg width="120" height="96" fill="none" xmlns="http://www.w3.org/2000/svg"><path fill-rule="evenodd" clip-rule="evenodd" d="M59.937 10.8h.125c6.677 0 11.768 0 15.813.367 4.075.369 7.206 1.118 9.925 2.688a22.8 22.8 0 018.345 8.345c1.57 2.72 2.319 5.85 2.688 9.924.367 4.046.367 9.137.367 15.814v.124c0 6.677 0 11.768-.367 15.814-.37 4.074-1.118 7.205-2.688 9.924a22.8 22.8 0 01-8.345 8.345c-2.72 1.57-5.85 2.32-9.925 2.688-4.045.367-9.136.367-15.813.367h-.125c-6.676 0-11.767 0-15.813-.367-4.074-.369-7.205-1.118-9.924-2.688a22.8 22.8 0 01-8.346-8.345c-1.57-2.72-2.318-5.85-2.688-9.924-.366-4.046-.366-9.137-.366-15.813v-.126c0-6.676 0-11.767.366-15.813.37-4.074 1.119-7.205 2.688-9.924a22.8 22.8 0 018.346-8.345c2.719-1.57 5.85-2.319 9.924-2.688 4.045-.367 9.137-.367 15.813-.367zm-15.596 2.757c-3.908.354-6.648 1.052-8.941 2.376a20.4 20.4 0 00-7.467 7.467c-1.324 2.293-2.022 5.033-2.376 8.941C25.2 36.266 25.2 41.249 25.2 48c0 6.751.001 11.735.357 15.659.354 3.908 1.052 6.648 2.376 8.941a20.4 20.4 0 007.467 7.467c2.293 1.324 5.033 2.022 8.94 2.376 3.925.356 8.908.357 15.66.357 6.751 0 11.734-.001 15.659-.357 3.908-.354 6.648-1.052 8.94-2.376a20.4 20.4 0 007.468-7.467c1.324-2.293 2.022-5.033 2.376-8.941.356-3.924.357-8.908.357-15.659 0-6.751-.001-11.734-.357-15.659-.354-3.908-1.052-6.648-2.376-8.941a20.4 20.4 0 00-7.467-7.467c-2.293-1.324-5.033-2.022-8.941-2.376-3.925-.356-8.908-.357-15.66-.357-6.75 0-11.734.001-15.658.357z" fill="#FF272C"/><g filter="url(#filter0_b)"><path d="M32.4 63c0 4.292 0 6.438.802 8.091a8 8 0 003.707 3.707c1.653.802 3.8.802 8.09.802 4.293 0 6.439 0 8.092-.802a8 8 0 003.707-3.707c.802-1.653.802-3.8.802-8.09 0-4.293 0-6.439-.802-8.092a8 8 0 00-3.707-3.707c-1.653-.802-3.8-.802-8.091-.802-4.292 0-6.438 0-8.091.802a8 8 0 00-3.707 3.707c-.802 1.653-.802 3.8-.802 8.091z" fill="#040B1D" fill-opacity=".1"/></g><g filter="url(#filter1_b)"><path d="M62.4 63c0 4.292 0 6.438.802 8.091a8 8 0 003.707 3.707c1.653.802 3.8.802 8.09.802 4.293 0 6.439 0 8.092-.802a8 8 0 003.707-3.707c.802-1.653.802-3.8.802-8.09 0-4.293 0-6.439-.802-8.092a8 8 0 00-3.707-3.707c-1.653-.802-3.8-.802-8.091-.802-4.292 0-6.438 0-8.091.802a8 8 0 00-3.707 3.707c-.802 1.653-.802 3.8-.802 8.091z" fill="#040B1D" fill-opacity=".1"/></g><g filter="url(#filter2_b)"><path d="M32.4 33c0 4.292 0 6.438.802 8.091a8 8 0 003.707 3.707c1.653.802 3.8.802 8.09.802 4.293 0 6.439 0 8.092-.802a8 8 0 003.707-3.707c.802-1.653.802-3.8.802-8.09 0-4.293 0-6.439-.802-8.092a8 8 0 00-3.707-3.707c-1.653-.802-3.8-.802-8.091-.802-4.292 0-6.438 0-8.091.802a8 8 0 00-3.707 3.707c-.802 1.653-.802 3.8-.802 8.091z" fill="#040B1D" fill-opacity=".1"/></g><g filter="url(#filter3_b)"><path d="M62.4 33c0 4.292 0 6.438.802 8.091a8 8 0 003.707 3.707c1.653.802 3.8.802 8.09.802 4.293 0 6.439 0 8.092-.802a8 8 0 003.707-3.707c.802-1.653.802-3.8.802-8.09 0-4.293 0-6.439-.802-8.092a8 8 0 00-3.707-3.707c-1.653-.802-3.8-.802-8.091-.802-4.292 0-6.438 0-8.091.802a8 8 0 00-3.707 3.707c-.802 1.653-.802 3.8-.802 8.091z" fill="#040B1D" fill-opacity=".1"/></g><defs><filter id="filter0_b" x="8.4" y="26.4" width="73.2" height="73.2" filterUnits="userSpaceOnUse" color-interpolation-filters="sRGB"><feFlood flood-opacity="0" result="BackgroundImageFix"/><feGaussianBlur in="BackgroundImage" stdDeviation="12"/><feComposite in2="SourceAlpha" operator="in" result="effect1_backgroundBlur"/><feBlend in="SourceGraphic" in2="effect1_backgroundBlur" result="shape"/></filter><filter id="filter1_b" x="38.4" y="26.4" width="73.2" height="73.2" filterUnits="userSpaceOnUse" color-interpolation-filters="sRGB"><feFlood flood-opacity="0" result="BackgroundImageFix"/><feGaussianBlur in="BackgroundImage" stdDeviation="12"/><feComposite in2="SourceAlpha" operator="in" result="effect1_backgroundBlur"/><feBlend in="SourceGraphic" in2="effect1_backgroundBlur" result="shape"/></filter><filter id="filter2_b" x="8.4" y="-3.6" width="73.2" height="73.2" filterUnits="userSpaceOnUse" color-interpolation-filters="sRGB"><feFlood flood-opacity="0" result="BackgroundImageFix"/><feGaussianBlur in="BackgroundImage" stdDeviation="12"/><feComposite in2="SourceAlpha" operator="in" result="effect1_backgroundBlur"/><feBlend in="SourceGraphic" in2="effect1_backgroundBlur" result="shape"/></filter><filter id="filter3_b" x="38.4" y="-3.6" width="73.2" height="73.2" filterUnits="userSpaceOnUse" color-interpolation-filters="sRGB"><feFlood flood-opacity="0" result="BackgroundImageFix"/><feGaussianBlur in="BackgroundImage" stdDeviation="12"/><feComposite in2="SourceAlpha" operator="in" result="effect1_backgroundBlur"/><feBlend in="SourceGraphic" in2="effect1_backgroundBlur" result="shape"/></filter></defs></svg>
